icons/travel-map-4.svg

<svg xmlns="http://www.w3.org/2000/svg" fill="none" viewBox="0 0 24 24"><path fill="currentColor" d="m15.467 8.262-.383.924zm4.55 11.262a1 1 0 1 0 .765-1.848l-.764 1.848ZM3.383 10.476a1 1 0 1 0-.764 1.848zM5.788 3.4h12.424v-2H5.788zm12.424 17.2H5.788v2h12.424zM3.4 18.212V5.788h-2v12.424zM5.788 20.6A2.39 2.39 0 0 1 3.4 18.212h-2A4.39 4.39 0 0 0 5.788 22.6zM20.6 18.212a2.39 2.39 0 0 1-2.388 2.388v2a4.39 4.39 0 0 0 4.388-4.388zM18.212 3.4A2.39 2.39 0 0 1 20.6 5.788h2A4.39 4.39 0 0 0 18.212 1.4zm-12.424-2A4.39 4.39 0 0 0 1.4 5.788h2A2.39 2.39 0 0 1 5.788 3.4zM20.6 10.8v7.412h2V10.8zM3.818 4.524l11.266 4.662.765-1.848L4.582 2.676zm11.266 4.662 6.134 2.538.764-1.848-6.133-2.538zm2.241-6.649L14.58 7.8l1.773.925 2.745-5.262-1.773-.925Zm3.457 15.139-17.4-7.2-.764 1.848 17.4 7.2zM20.6 5.788V10.8h2V5.788z"/></svg>

<svg fill="none" viewBox="0 0 24 24"><path fill="currentColor" d="m15.5 8.3-.4.9zM20 19.5a1 1 0 1 0 .8-1.8zm-16.6-9a1 1 0 1 0-.8 1.8zm2.4-7.1h12.4v-2H5.8zm12.4 17.2H5.8v2h12.4zM3.4 18.2V5.8h-2v12.4zm2.4 2.4a2.4 2.4 0 0 1-2.4-2.4h-2a4.4 4.4 0 0 0 4.4 4.4zm14.8-2.4a2.4 2.4 0 0 1-2.4 2.4v2a4.4 4.4 0 0 0 4.4-4.4zM18.2 3.4a2.4 2.4 0 0 1 2.4 2.4h2a4.4 4.4 0 0 0-4.4-4.4zm-12.4-2a4.4 4.4 0 0 0-4.4 4.4h2a2.4 2.4 0 0 1 2.4-2.4zm14.8 9.4v7.4h2v-7.4zM3.8 4.5l11.3 4.7.7-1.9L4.6 2.7zm11.3 4.7 6.1 2.5.8-1.8-6.2-2.6zm2.2-6.7-2.7 5.3 1.8 1L19 3.4zm3.5 15.2L3.4 10.5l-.8 1.8L20 19.5zm-.2-12v5.1h2v-5z"/></svg>
